images/categories/magic.svg

<svg xmlns="http://www.w3.org/2000/svg" width="32" height="32" fill="#fff" viewBox="0 0 32 32"><path fill="#fff" d="M24.087 4.086l-.404-2.312-1.59 1.728-2.322-.33 1.15 2.045-1.03 2.107 2.3-.464 1.688 1.635.27-2.332 2.075-1.1-2.136-.977zm3.174 13.55l-.18-1.25-.884.905-1.244-.214.588 1.11-.588 1.103 1.244-.22.883.897.18-1.25 1.134-.562-1.133-.518zM5.965 7.107l.948-.37.844.568-.062-1.013.802-.626-.985-.256-.348-.957-.547.86-1.017.036.646.785-.28.977zm5.52 2.834l1.02-1.096 1.48.22-.727-1.312.667-1.34-1.47.288-1.068-1.05-.182 1.49-1.328.692 1.358.633.25 1.475zm6.794 2.218c-.588-.367-1.172-.617-1.69-.73-.493-.09-1.04-.147-1.426.375L3.606 30.227h6.68l9.67-15.417c.302-.576.01-1.04-.284-1.446-.325-.42-.805-.84-1.394-1.206zm-3.62 9.215c-.255-.396-.74-.854-1.374-1.254-.632-.397-1.258-.636-1.726-.69l4.42-7.06c.064-.016.263-.022.544.063.346.093.785.285 1.225.562.504.312.908.678 1.133.97.113.147.178.272.195.336l.004.016-4.423 7.057z"/></svg>

<svg xmlns="http://www.w3.org/2000/svg" xmlns:xlink="http://www.w3.org/1999/xlink" version="1.1" id="Layer_1" x="0px" y="0px" width="32px" height="32px"  fill="#fff" viewBox="0 0 32 32" enable-background="new 0 0 32 32" xml:space="preserve">
<path id="Magic" fill="#fff" d="M24.087,4.086l-0.404-2.312l-1.59,1.728l-2.322-0.33l1.15,2.045L19.89,7.324L22.19,6.86  l1.688,1.635l0.271-2.332l2.074-1.101L24.087,4.086z M27.261,17.637l-0.182-1.25l-0.883,0.904l-1.244-0.215l0.588,1.109  l-0.588,1.104l1.244-0.218l0.883,0.896l0.182-1.25l1.133-0.562L27.261,17.637z M5.964,7.107l0.948-0.372l0.844,0.569L7.694,6.291  l0.802-0.627L7.511,5.408L7.162,4.451L6.615,5.31L5.598,5.346l0.646,0.785L5.964,7.107z M11.483,9.94l1.021-1.096l1.481,0.219  l-0.728-1.311l0.667-1.34L12.455,6.7l-1.069-1.049L11.204,7.14L9.876,7.832l1.358,0.633L11.483,9.94z M18.278,12.158  c-0.588-0.367-1.172-0.617-1.691-0.729c-0.492-0.09-1.039-0.148-1.425,0.374L3.606,30.227h6.68l9.669-15.417  c0.303-0.576,0.012-1.041-0.283-1.446C19.347,12.943,18.867,12.525,18.278,12.158z M14.657,21.373  c-0.254-0.396-0.74-0.854-1.373-1.254c-0.632-0.396-1.258-0.635-1.726-0.688l4.421-7.062c0.063-0.015,0.262-0.021,0.543,0.064  c0.346,0.093,0.785,0.285,1.225,0.562c0.504,0.312,0.908,0.678,1.133,0.971c0.113,0.146,0.178,0.271,0.195,0.335  c0.002,0.006,0.004,0.011,0.004,0.015L14.657,21.373z"/>
</svg>
